X: 313
T:Entr\'ee suis en grant pens\'ee
N: Derived from Jos2708-Entree_suis_en_grant_pensee.krn
C: Josquin des Prez
%%abc-version 2.0
%%abcx-abcm2ps-target-version 5.9.1 (29 Sep 2008)
%%abc-creator hum2abc beta
%%abcx-conversion-date 2019/02/12 16:15:54
%%abc-edited-by Jesse Rodin
%%abc-edited-by Jesse Rodin; Victoria Chang 2011/05/30/
%%abcx-initial-encoding-date 2011/05/30/
%%humdrum-veritas 2421099539
%%humdrum-veritas-data 2261513152
%%linebreak <none>
%%barnumbers 0
L: 1/4
M: 2/1
Q: 1/2=120
V: 1 clef=treble
V: 2 clef=treble-8
V: 3 clef=bass
K: F
[V:1] D4D2D2 | 
[V:2] z8 | 
[V:3] z4D4 | 
[V:1] A6=Bc | 
[V:2] z8 | 
[V:3] D2D2D4- | 
[V:1] d6c2 | 
[V:2] G4G2G2 | 
[V:3] D2C2B,2A,2 | 
[V:1] B2AGA4 | 
[V:2] d6ef | 
[V:3] G,4F,4 | 
[V:1] G3ABcd2- | 
[V:2] g6f2 | 
[V:3] _E,3F,G,A,B,2 | 
[V:1] dcc4=B2 | 
[V:2] e2dcd4 | 
[V:3] C2A,2G,4 | 
[V:1] c4z4 | 
[V:2] c8 | 
[V:3] C,4z2C2- | 
[V:1] d4d2d2 | 
[V:2] z8 | 
[V:3] C2=B,A,=B,4 | 
[V:1] e4e2d2- | 
[V:2] z8 | 
[V:3] C6B,A, | 
[V:1] dc=BAB4 | 
[V:2] g4g2g2 | 
[V:3] G,4G,4 | 
[V:1] A3=Bcde2- | 
[V:2] a6g2 | 
[V:3] F,3G,A,B,C2 | 
[V:1] e2d4^c2 | 
[V:2] f2ede4 | 
[V:3] D2B,2A,4 | 
[V:1] d4z4 | 
[V:2] d8 | 
[V:3] D,8 | 
[V:1] D4D2D2 | 
[V:2] z8 | 
[V:3] z4D4 | 
[V:1] A6=Bc | 
[V:2] z8 | 
[V:3] D2D2D4- | 
[V:1] d6c2 | 
[V:2] G4G2G2 | 
[V:3] D2C2B,2A,2 | 
[V:1] B2AGA4 | 
[V:2] d6ef | 
[V:3] G,4F,4 | 
[V:1] G3ABcd2- | 
[V:2] g6f2 | 
[V:3] _E,3F,G,A,B,2 | 
[V:1] dcc4=B2 | 
[V:2] e2dcd4 | 
[V:3] C2A,2G,4 | 
[V:1] c4z4 | 
[V:2] c8 | 
[V:3] C,4z2C2- | 
[V:1] d4d2d2 | 
[V:2] z8 | 
[V:3] C2=B,A,=B,4 | 
[V:1] e4e2d2- | 
[V:2] z8 | 
[V:3] C6B,A, | 
[V:1] dc=BAB4 | 
[V:2] g4g2g2 | 
[V:3] G,4G,4 | 
[V:1] A3=Bcde2- | 
[V:2] a6g2 | 
[V:3] F,3G,A,B,C2 | 
[V:1] e2d4^c2 | 
[V:2] f2ede4 | 
[V:3] D2B,2A,4 | 
[V:1] d6c2 | 
[V:2] d8 | 
[V:3] D,8 | 
[V:1] B2AGA4 | 
[V:2] z4z2c2 | 
[V:3] G,4F,4 | 
[V:1] G4z2c2 | 
[V:2] B2AGA4 | 
[V:3] G,4F,4 | 
[V:1] B2AGAGFE | 
[V:2] G4z2c2 | 
[V:3] G,4F,4 | 
[V:1] D2G4^F2 | 
[V:2] B2AGA4 | 
[V:3] G,2E,2D,4 | 
[V:1] G4z4 | 
[V:2] G8 | 
[V:3] z4D4- | 
[V:1] A6B2 | 
[V:2] z8 | 
[V:3] D4D4 | 
[V:1] c6B2 | 
[V:2] A6B2 | 
[V:3] C3B,A,2G,2 | 
[V:1] A2G3FED | 
[V:2] c6B2 | 
[V:3] F,2C,3D,E,2 | 
[V:1] C2F4E2 | 
[V:2] A2GFG4 | 
[V:3] F,2D,2C,4 | 
[V:1] F4z4 | 
[V:2] F8 | 
[V:3] z4A,4- | 
[V:1] A6B2 | 
[V:2] z8 | 
[V:3] A,2B,2C4- | 
[V:1] c6d2 | 
[V:2] A6B2 | 
[V:3] C2D2E4 | 
[V:1] e3dc=BA2- | 
[V:2] c2d2e2f2- | 
[V:3] A,3B,C2D2- | 
[V:1] A2d4^c2 | 
[V:2] fed2e4 | 
[V:3] D2B,2A,4 | 
[V:1] d3cA4 | 
[V:2] d8 | 
[V:3] z2D,3E,F,G, | 
[V:1] z2c3=BAG | 
[V:2] f4c4 | 
[V:3] A,F,A,3G,F,E, | 
[V:1] F2A3GFE | 
[V:2] d2cBABc2 | 
[V:3] D,3E,F,G,A,2 | 
[V:1] D2G4^F2 | 
[V:2] d2G2A4 | 
[V:3] B,4C4 | 
[V:1] G8 |]  
[V:2] G8 |]  
[V:3] D8 |]  



